X: 1
T: Joe Banes Scotische
M: 4/4
L: 1/8
R: barndance
K: Amaj
|:af|eA AB c2 BA|e2 A2 Aa af|eA AB c2 BA|c2 B2 B2 Ac|
eA AB c3 B|AB ce a3 f|e3 f ec Ac|B2 A2 A2:|
|:ce|a3 a af ea|f3 e fa af|e3 f ec AB|c2 B2 B2 ce|
a3 a af ea|fe ce fa af|e3 f ec Ac|B2 A2 A2:|
